X:1
T:Moralità Amorosa
T:Moralità Amorosa
T:Barbara Strozzi
T:Source : Cantate, ariete a 1,2 e 3 voci---Opera terza---Venetia---F.Magni---1654. Editor : André Vierendeels (02/09/16). Notes : Original clefs : C1, F4 Dotted brackets indicate black notes Original note values have been halved in 3 beat measures
T:©
T:©
T:©
T:©
T:©
T:©
T:©
T:©
T:©
T:©
C:Barbara Strozzi
Z:©
%%score 1 { 2 | 3 }
L:1/8
Q:1/4=83
M:4/4
K:C
V:1 treble nm="Soprano" snm="S"
V:2 treble nm="MusicXML Part"
V:3 bass 
V:1
 E2- E/^F/^G/E/ A2- A/B/c/A/ | e>B c/^G/A/B/ A4 | A2 A/B/c/d/ e2 ed | c3 A EE EE/^F/ | %4
w: Sor- * * * * * * * * *||ge, sor- * * * ge il mio|Sol co mat- tu- ti- ni al|
 ^GG/E/ ^F/G/A/4B/4c/4d/4 e3 d/c/- | B2 z B B4 | B4 z Bcd | c4 z cde | f3 e d3 c- | d8 | %10
w: bo- * * * * * * * * * * ri|_ c'in- ten-|to à col- ti-|var bel- * *|ta Di- vi- ne,|_|
 ed/c/- B2 cB/A/- G2 |"^BC" AG/F/- E2 F/E/F/G/ A/G/A/B/ | c/B/c/d/ e/d/e/f/ g2 gc | %13
w: con _ pro _ fu- * mi _|o- * do _ ro- * * * * * * *|* * * * * * * * * ti in|
 AG/A/ BA/B/ ce/f/ g/c/B/c/ | A2 GA F/E/F/G/ F2- | FG/A/ G/4G/4G/4G/4F- E4 | z2 E2 ^F2 ^G2 | %17
w: cen- * * * * * * * * * * * *|* sa il cri- * * * *|* * * * * * * ne, _|per a- di-|
 A2 B2 c2 z2 | z2 e3 B c^F | G^D E2- EF>ED/E/ | E3 ^D- E2 ^G2 | A2 B2 c2 d2 | e2 z2 d>e d>c | %23
w: tar al- trui|co- me s'a- *|do- * * * * * * *|* ri _ per|a- di- tar al-|trui co- * * *|
 ^G2 E2 cG A2- | A_B>A^G/A/ A3 G | A8 ||"^SECONDA PARTE" z2 z e/d/ c3 d/e/ | c4 z4 | cd cB AG AG | %29
w: * me s'a- * do-||ri.|Pos- * * * *|cia|con _ sot- * ti- * lis- *|
 AG AG AEFG | FEFG AGAB | c4 e/f/e/d/ c/d/c/B/ | A2 A2 d/e/d/c/ B/c/B/A/ | G2 G2 z f c>B | %34
w: si- * mi _ can- * * *|do- * * * * * * *|ri spar- * * * * * * *|* ge, spar- * * * * * * *|* ge del Au- reo|
 A2 A2 z/ G/A/B/ c/d/e/f/ | g/a/g/f/ e/f/e/d/ c/d/c/B/ A/G/A/B/ | c6 de | e d3 c4 | %38
w: ca- po o- * * * * * *||* gni con-|fi- * ne,|
[M:3/2] z2 EDE^F G4 G2 | A2 B2 c2 B2 c2 d2 | c2 d2 e2 e4 d2- | e6 z6 | z2 e2 e2 e3 d c2 | d6 c6 | %44
w: che _ _ _ _ di|pol- ve di Ci- pri Ar-|gen- te e bri- ne|_|fan- n'of- fi- cio di|smal- to,|
 z2 A2 A2 G3 F E2 | F6 E6 | z2 G2 F2 E2 ^F2 G2 | G2 ^F2 G2 G6 | z6 z2 E2 ^F2 | ^G3 ^F G2 A6 | %50
w: fan- n'of- fi- cio di|smal- to|in _ su que- *|gli _ o- ri,|fan- n'of-|fi- cio di smal-|
 A6 z4 d2 | c6 z4 B2 | d2 c2 B2 c2 B4 | A6 A6- | A6 A6- | A6 A6 ||"^TERZA PARTE" e2 d3 c d6 | %57
w: to, in|su, in|su que- * gli- *|o- ri.|_ _||Men- tre co- si|
 c2 B3 c A6 | d2 c3 d B6 | c6 c4 B2- | c6 z2 G2 G2 | ^G3 ^F G2 A2 A2 c2 | B2 cB AG ^F2 ED EF | %63
w: la bel- la man,|la bel- la man|s'im- pie- ga|_ e frà|ce- ne- ri e fu- mi|il cri- * * * * ne _ in _|
 G2 ^F4 E6 | z2 ed ef g2 dc de | f2 cB cd e2 BABc | d2 cBAB c2 B4 | A2 cd ef ga gfed | %68
w: vol- * ve,|in _ ca- * te- ne _ di _|fo- co _ il _ cor il _ _ _|cor mi _ _ _ le- *|ga, in _ ca- * te- * * * * *|
 efed cB A2 A2 B2 | c2 c2 G2 AG ABAc | BABc BdcB cdce | dcde df e4 g2 | c2 ed cd e2 d4 | c12 || %74
w: * * * * * * * ne di|fo- co il cor _ , _ _ _|_ _ _ _ _ _ _ _ _ _ _ _|* * * * * * * il|cor mi _ _ _ le- *|ga.|
[M:4/4]"^QUARTA PARTE" z EEE A2 AB | c4 z ecA | EEEE EEE^F | ^G2 G2 z B e>^d | %78
w: Che me- ra- vi- glia e|poi fe si dis-|sol- ve la bel- lez- za in brev'|ho- ra, e chi mi|
 e2 ee/e/ ed/c/ B/A/G/F/ | E2 E^F ^G2 z e | f2 fA E2 E2 | z8 |] %82
w: ne- ga che fu- ga- * * * * * *|* ce non fia s'e|fu- mo e pol- ve.||
V:2
 z8 | z8 | z8 | z8 | z8 | z8 | z8 | z8 | z8 | z8 | z8 |"^BC" z8 | z8 | z8 | z8 | z8 | z8 | z8 | %18
 z8 | z8 | z8 | z8 | z8 | z8 | z8 | z8 || z8 | z8 | z8 | z8 | z8 | z8 | z8 | z8 | z8 | z8 | z8 | %37
 z8 |[M:3/2] z12 | z12 | z12 | z12 | z12 | z12 | z12 | z12 | z12 | z12 | z12 | z12 | z12 | z12 | %52
 z12 | z12 | z12 | z12 || z12 | z12 | z12 | z12 | z12 | z12 | z12 | z12 | z12 | z12 | z12 | z12 | %68
 z12 | z12 | z12 | z12 | z12 | z12 ||[M:4/4] z8 | z8 | z8 | z8 | z8 | z8 | z8 | z8 |] %82
V:3
"^BC" A,,8- | A,,8- | A,,8- |"^BC" A,,8 | E,8 | E,2 ^F,2 ^G,2 F,2 | E,2 D,2 C,2 B,,2 | %7
 A,,2 G,,2 F,,2 E,,2- | E,,2 D,,2 G,,2 A,,2 | G,,2 G,2 A,2 B,2 | C2 G,2 A,G,/F,/ E,2 | %11
 F,E,/D,/ C,2 D,E,F,G, | A,B,CD D2 E,2 | F,2 G,2 A,2 E,2 |"^BC" F,2 E,2 D,4- | D,4 C,4 | %16
 z4 z2 E,2 | ^F,2 ^G,2 A,2 B,2 |"^BC" C2 A,2 ^G,2 A,2 | B,2 C2 A,3 ^A, | B,4 E,4 | %21
 z2 ^G,2 A,2 B,2 |"^BC" C2 D2 E4 | E,6 F,2 | D,3 ^D, E,4 | A,,8 ||"^BC" A,,8- | A,,4 A,2 G,2 | %28
 F,2 E,2 F,2 E,2 | D,2 C,2 F,2 E,2 | D,2 E,2 F,2 D,2 | C,4 z4 | A,/B,/A,/G,/ F,/G,/F,/E,/ D,4 | %33
 G,/A,/G,/F,/ E,/F,/E,/D,/ C,4 | F,/C,/D,/E,/ F,/G,/A,/B,/ C4 | E,8 | E,4 F,4 | G,4 C,4 | %38
[M:3/2] C6 B,6 | A,6 G,6 | A,4 G,2 F,6 | E,2 E,2 E,2 D,3 C, B,,2 | C,2 C4 B,6 | %43
 z2 A,2 A,2 G,3 F, E,2 | F,6 E,6 | z2 D,2 D,2 C,3 B,, A,,2 | B,,6 C,4 B,,2 | C,2 D,4 G,,2 G,2 A,2 | %48
 B,3 A, B,2 C6 | B,6 z2 A,2 B,2 | ^C3 B, C2 D4 D,2 | A,4 A,2 G,4 E,2 | D,6 E,6 | %53
 A,,2 A,,2 B,,2 C,3 B,, C,2 | D,2 D,2 E,2 F,3 E, D,2 | E,2 E,,4 A,,6 || C6 B,2 A,3 G, | %57
 A,2 G,4 F,2 E,3 F, | D,6 G,2 F,3 G, | E,4 F,2 D,6 | C,6 C6 | B,6 A,6 | E,2 A,,4 B,,2 C,2 A,,2 | %63
 B,,6 E,2 E,2 D,2 | C,2 C4 B,6 | A,6 G,6 | F,2 D,4 E,6 | A,,6 E,4 D,2 | C,6 F,4 G,2 | %69
 A,4 E,2 F,4 F,2 | G,4 G,2 A,4 A,2 | B,4 B,2 C4 E,2 | F,6 G,6 | C,12 ||[M:4/4] A,,8- | A,,8- | %76
 A,,8 | E,8- | E,8- | E,8 | D,6 E,2 | A,,8 |] %82

